X: 1223
T: An Dro
R: reel
M: 4/4
K: Eminor
|E2Bc B3G|A3G FGAG|EGBc B3G|(3ABA GA FF2D|
EGBc B3G|A3G FGAG|EGBc B3G|A2GA F2FD|
E2FG .A3A|(3AcA GF BcB2|E2FG A2BF|G3A AGFD|
E2FG .A3A|(3AcA GF BcB2|E2FG A2BF|G2GA AGFD|

